X:946
T:Aada
C:Trad.
Z:Asturias, canciones
M:2/4
L:1/8
Q:1/4=120
K:G
G|ccc A|B2 B G|cc/c/ dA|B2 z G|AAA F|G2 GG|AAA F|G4|MG4|MG4|MG4-|G2 z2|
